src/assets/images/messager_viber.svg

<svg fill="none" height="70" viewBox="0 0 71 70" width="71" xmlns="http://www.w3.org/2000/svg"><path d="m70.0938 0h-70.00005v70h70.00005z" fill="#7d3daf"/><g fill="#fff"><path d="m54.9031 23.8707-.012-.0481c-1.0017-4.0463-5.5119-8.3864-9.6544-9.2901h-.0464c-6.6711-1.2783-13.5243-1.2783-20.1954 0h-.0481c-4.1425.9037-8.6527 5.2438-9.6544 9.2901l-.0121.0481c-1.237 5.6089-1.237 11.42 0 17.0288l.0121.0498c.9587 3.8728 5.1339 8.0136 9.1217 9.1527v4.5154c.0002.3622.1087.716.3115 1.0161.2028.3.4907.5326.8267.6678.3359.1352.7047.1669 1.0588.0909.3541-.0759.6774-.256.9284-.5171l4.5738-4.7559c.9931.055 1.9862.0859 2.9793.0859 3.3885-.0005 6.7694-.3209 10.0977-.957l.0464-.0103c4.1425-.9021 8.6527-5.2439 9.6544-9.2885l.012-.0567c1.2371-5.6088 1.2371-11.4199 0-17.0287zm-3.6202 16.2093c-.6684 2.6391-4.0944 5.9208-6.816 6.529-3.5383.6761-7.1393.967-10.7403.8677-.0354-.001-.0706.0053-.1034.0186-.0329.0133-.0626.0333-.0873.0587l-3.3401 3.4363-3.5532 3.646c-.0573.06-.1313.1015-.2125.1191-.0811.0177-.1657.0106-.2428-.0203-.077-.0309-.1431-.0841-.1897-.1528-.0465-.0688-.0714-.1499-.0715-.2329v-7.4895c-.0001-.0599-.0211-.1179-.0594-.164-.0382-.0461-.0913-.0774-.1502-.0886-2.7216-.6048-6.1459-3.8865-6.8142-6.5291-1.1134-5.0694-1.1134-10.3201 0-15.3896.6683-2.6391 4.0926-5.9191 6.8142-6.5291 6.1947-1.1838 12.5575-1.1838 18.7521 0 2.7233.6065 6.1477 3.8865 6.816 6.5291 1.1151 5.0693 1.1151 10.3203 0 15.3896z"/><path d="m41.0138 43.5332c-.4175-.1272-.8161-.2131-1.1872-.366-3.8367-1.5876-7.3676-3.6494-10.1647-6.7936-1.5911-1.7921-2.8367-3.8126-3.89-5.9518-.4982-1.0137-.9192-2.0618-1.3487-3.115-.3901-.9553.1855-1.9415.792-2.6615.5792-.6666 1.293-1.203 2.0945-1.5738.6185-.2972 1.2285-.1254 1.6804.3986.9904 1.1205 1.8622 2.3407 2.6013 3.6408.4467.8093.3247 1.7972-.4846 2.347-.1975.1341-.3762.2904-.5601.4416-.165.1234-.3079.2739-.4226.445-.0945.1607-.1509.3409-.1649.5267-.014.1859.0148.3725.0841.5455.9983 2.749 2.6821 4.8796 5.4449 6.0273.4415.1838.8848.3986 1.3951.3436.8591-.1013 1.1289-1.0309 1.7182-1.524.2726-.2256.6114-.356.9649-.3715.3536-.0155.7025.0848.9938.2856.6306.3986 1.2405.8247 1.847 1.2577.6014.4109 1.1812.8525 1.7371 1.323.5275.4656.7096 1.0756.4124 1.7061-.5447 1.1564-1.3368 2.1168-2.4793 2.7302-.3231.1718-.7079.2285-1.0722.3436-.4175-.1271.3643-.1134 0 0z"/><path d="m35.1054 21.75c5.0188.1409 9.1406 3.4724 10.0238 8.4345.1512.8453.2045 1.7096.2715 2.5669.0275.3609-.1719.7045-.5653.7096-.3935.0052-.5842-.3316-.61-.6872-.0515-.7148-.0876-1.433-.1855-2.1409-.2744-1.8446-1.1169-3.5578-2.4102-4.9013-1.2934-1.3436-2.9733-2.2506-4.8061-2.595-.5602-.0997-1.1323-.1255-1.6993-.1856-.3591-.0378-.8282-.0584-.9072-.5051-.0107-.0858-.0031-.1728.0223-.2553.0254-.0826.0679-.1589.1249-.2238s.1271-.117.2056-.1529c.0786-.0359.1639-.0548.2503-.0553h.2921c5.0187.1409-.098 0 0 0z"/><path d="m42.7316 31.6381c-.0078.1155-.0238.2304-.0481.3436-.134.5034-.8986.567-1.0739.0584-.0468-.157-.0671-.3208-.0601-.4845.0156-1.0665-.2499-2.1184-.7698-3.0498-.5571-.9616-1.3846-1.7384-2.3796-2.2336-.5986-.2842-1.2352-.4804-1.89-.5824-.2869-.0482-.5756-.0756-.8591-.1169-.0751-.0037-.1487-.0228-.216-.0562-.0674-.0334-.1272-.0804-.1756-.138s-.0843-.1245-.1056-.1967c-.0214-.0721-.0276-.1478-.0182-.2225.0004-.0758.0168-.1506.0482-.2196.0313-.069.0768-.1307.1335-.1809.0568-.0503.1235-.088.1958-.1108.0722-.0227.1485-.03.2238-.0213 1.1455.0445 2.2677.3376 3.2886.8591 2.0824 1.1031 3.2645 2.8453 3.6185 5.1682.0154.1066.0412.2097.0498.3162.0189.2612.0309.5154.0515.8591 0 .0618-.0206-.3437 0 0z"/><path d="m39.6109 31.5162c-.0861.0096-.1732.001-.2558-.0252s-.1587-.0694-.2235-.1269-.1168-.128-.1526-.2069-.0547-.1644-.0554-.251c-.0221-.2692-.0617-.5366-.1185-.8007-.1139-.5204-.4085-.9837-.8316-1.3075-.2085-.1477-.4411-.2581-.6873-.3264-.3075-.0894-.6288-.0636-.9347-.1392-.0744-.0131-.1456-.0407-.2094-.0813s-.1189-.0933-.1623-.1552-.0742-.1318-.0906-.2056-.0181-.1501-.005-.2246c.0293-.1444.1101-.2732.2274-.3624.1173-.0891.2631-.1325.41-.1221 1.945.1409 3.3367 1.1478 3.5343 3.4364.025.1611.025.3251 0 .4862-.0184.1086-.0725.2079-.1537.2823s-.1849.1196-.2947.1283c-.4193 0 .1907-.012 0 0z"/></g></svg>

<svg width="71" height="70" viewBox="0 0 71 70" fill="none" xmlns="http://www.w3.org/2000/svg">
<path d="M70.0938 0H0.09375V70H70.0938V0Z" fill="#7D3DAF"/>
<path d="M54.9031 23.8707L54.8911 23.8226C53.8894 19.7763 49.3792 15.4362 45.2367 14.5325H45.1903C38.5192 13.2542 31.666 13.2542 24.9949 14.5325H24.9468C20.8043 15.4362 16.2941 19.7763 15.2924 23.8226L15.2803 23.8707C14.0433 29.4796 14.0433 35.2907 15.2803 40.8995L15.2924 40.9493C16.2511 44.8221 20.4263 48.9629 24.4141 50.102V54.6174C24.4143 54.9796 24.5228 55.3334 24.7256 55.6335C24.9284 55.9335 25.2163 56.1661 25.5523 56.3013C25.8882 56.4365 26.257 56.4682 26.6111 56.3922C26.9652 56.3163 27.2885 56.1362 27.5395 55.8751L32.1133 51.1192C33.1064 51.1742 34.0995 51.2051 35.0926 51.2051C38.4811 51.2046 41.862 50.8842 45.1903 50.2481L45.2367 50.2378C49.3792 49.3357 53.8894 44.9939 54.8911 40.9493L54.9031 40.8926C56.1402 35.2838 56.1402 29.4727 54.9031 23.8639V23.8707ZM51.2829 40.08C50.6145 42.7191 47.1885 46.0008 44.4669 46.609C40.9286 47.2851 37.3276 47.576 33.7266 47.4767C33.6912 47.4757 33.656 47.482 33.6232 47.4953C33.5903 47.5086 33.5606 47.5286 33.5359 47.554L30.1958 50.9903L26.6426 54.6363C26.5853 54.6963 26.5113 54.7378 26.4301 54.7554C26.349 54.7731 26.2644 54.766 26.1873 54.7351C26.1103 54.7042 26.0442 54.651 25.9976 54.5823C25.9511 54.5135 25.9262 54.4324 25.9261 54.3494V46.8599C25.926 46.8 25.905 46.742 25.8667 46.6959C25.8285 46.6498 25.7754 46.6185 25.7165 46.6073C22.9949 46.0025 19.5706 42.7208 18.9023 40.0782C17.7889 35.0088 17.7889 29.7581 18.9023 24.6886C19.5706 22.0495 22.9949 18.7695 25.7165 18.1595C31.9112 16.9757 38.274 16.9757 44.4686 18.1595C47.1919 18.766 50.6163 22.046 51.2846 24.6886C52.3997 29.7579 52.3997 35.0089 51.2846 40.0782L51.2829 40.08Z" fill="white"/>
<path d="M41.0138 43.5332C40.5963 43.406 40.1977 43.3201 39.8266 43.1672C35.9899 41.5796 32.459 39.5178 29.6619 36.3736C28.0708 34.5815 26.8252 32.561 25.7719 30.4218C25.2737 29.4081 24.8527 28.36 24.4232 27.3068C24.0331 26.3515 24.6087 25.3653 25.2152 24.6453C25.7944 23.9787 26.5082 23.4423 27.3097 23.0715C27.9282 22.7743 28.5382 22.9461 28.9901 23.4701C29.9805 24.5906 30.8523 25.8108 31.5914 27.1109C32.0381 27.9202 31.9161 28.9081 31.1068 29.4579C30.9093 29.592 30.7306 29.7483 30.5467 29.8995C30.3817 30.0229 30.2388 30.1734 30.1241 30.3445C30.0296 30.5052 29.9732 30.6854 29.9592 30.8712C29.9452 31.0571 29.974 31.2437 30.0433 31.4167C31.0416 34.1657 32.7254 36.2963 35.4882 37.444C35.9297 37.6278 36.373 37.8426 36.8833 37.7876C37.7424 37.6863 38.0122 36.7567 38.6015 36.2636C38.8741 36.038 39.2129 35.9076 39.5664 35.8921C39.92 35.8766 40.2689 35.9769 40.5602 36.1777C41.1908 36.5763 41.8007 37.0024 42.4072 37.4354C43.0086 37.8463 43.5884 38.2879 44.1443 38.7584C44.6718 39.224 44.8539 39.834 44.5567 40.4645C44.012 41.6209 43.2199 42.5813 42.0774 43.1947C41.7543 43.3665 41.3695 43.4232 41.0052 43.5383C40.5877 43.4112 41.3695 43.4249 41.0052 43.5383L41.0138 43.5332Z" fill="white"/>
<path d="M35.1054 21.75C40.1242 21.8909 44.246 25.2224 45.1292 30.1845C45.2804 31.0298 45.3337 31.8941 45.4007 32.7514C45.4282 33.1123 45.2288 33.4559 44.8354 33.461C44.4419 33.4662 44.2512 33.1294 44.2254 32.7738C44.1739 32.059 44.1378 31.3408 44.0399 30.6329C43.7655 28.7883 42.923 27.0751 41.6297 25.7316C40.3363 24.388 38.6564 23.481 36.8236 23.1366C36.2634 23.0369 35.6913 23.0111 35.1243 22.951C34.7652 22.9132 34.2961 22.8926 34.2171 22.4459C34.2064 22.3601 34.214 22.2731 34.2394 22.1906C34.2648 22.108 34.3073 22.0317 34.3643 21.9668C34.4213 21.9019 34.4914 21.8498 34.5699 21.8139C34.6485 21.778 34.7338 21.7591 34.8202 21.7586C34.9181 21.7586 35.0143 21.7586 35.1123 21.7586C40.131 21.8995 35.0143 21.7586 35.1123 21.7586L35.1054 21.75Z" fill="white"/>
<path d="M42.7316 31.6381C42.7238 31.7536 42.7078 31.8685 42.6835 31.9817C42.5495 32.4851 41.7849 32.5487 41.6096 32.0401C41.5628 31.8831 41.5425 31.7193 41.5495 31.5556C41.5651 30.4891 41.2996 29.4372 40.7797 28.5058C40.2226 27.5442 39.3951 26.7674 38.4001 26.2722C37.8015 25.988 37.1649 25.7918 36.5101 25.6898C36.2232 25.6416 35.9345 25.6142 35.651 25.5729C35.5759 25.5692 35.5023 25.5501 35.435 25.5167C35.3676 25.4833 35.3078 25.4363 35.2594 25.3787C35.211 25.3211 35.1751 25.2542 35.1538 25.182C35.1324 25.1099 35.1262 25.0342 35.1356 24.9595C35.136 24.8837 35.1524 24.8089 35.1838 24.7399C35.2151 24.6709 35.2606 24.6092 35.3173 24.559C35.3741 24.5087 35.4408 24.471 35.5131 24.4482C35.5853 24.4255 35.6616 24.4182 35.7369 24.4269C36.8824 24.4714 38.0046 24.7645 39.0255 25.286C41.1079 26.3891 42.29 28.1313 42.644 30.4542C42.6594 30.5608 42.6852 30.6639 42.6938 30.7704C42.7127 31.0316 42.7247 31.2858 42.7453 31.6295C42.7453 31.6913 42.7247 31.2858 42.7453 31.6295L42.7316 31.6381Z" fill="white"/>
<path d="M39.6109 31.5162C39.5248 31.5258 39.4377 31.5172 39.3551 31.491C39.2725 31.4648 39.1964 31.4216 39.1316 31.3641C39.0668 31.3066 39.0148 31.2361 38.979 31.1572C38.9432 31.0783 38.9243 30.9928 38.9236 30.9062C38.9015 30.637 38.8619 30.3696 38.8051 30.1055C38.6912 29.5851 38.3966 29.1218 37.9735 28.798C37.765 28.6503 37.5324 28.5399 37.2862 28.4716C36.9787 28.3822 36.6574 28.408 36.3515 28.3324C36.2771 28.3193 36.2059 28.2917 36.1421 28.2511C36.0783 28.2105 36.0232 28.1578 35.9798 28.0959C35.9364 28.034 35.9056 27.9641 35.8892 27.8903C35.8728 27.8165 35.8711 27.7402 35.8842 27.6657C35.9135 27.5213 35.9943 27.3925 36.1116 27.3033C36.2289 27.2142 36.3747 27.1708 36.5216 27.1812C38.4666 27.3221 39.8583 28.329 40.0559 30.6176C40.0809 30.7787 40.0809 30.9427 40.0559 31.1038C40.0375 31.2124 39.9834 31.3117 39.9022 31.3861C39.821 31.4605 39.7173 31.5057 39.6075 31.5144C39.1882 31.5144 39.7982 31.5024 39.6075 31.5144L39.6109 31.5162Z" fill="white"/>
</svg>
